X:1
T:Benjamin Beddome, 1787 86. 86. (C. M.)
T:C minor Oliver Holden, 1800
T:Why weepest thou? No copyright. Treble-Tenor-Bass from Plain Psalmody , 1800; Counter by B. C. Johnston, 2015.
%%score [ 1 2 3 4 ]
L:1/8
M:4/4
K:Eb
V:1 treble nm="Treble" snm="Tr."
V:2 treble nm="Counter" snm="C."
V:3 treble-8 nm="Tenor" snm="T."
V:4 bass nm="Bass" snm="B."
V:1
 G4 c3 c | c4 G4 | G6 G2 | G4 e4 | c2 d2 e4 | c4 =B4 | z4 c4 | =B6 c2 | d4 c4 | =B6 c2 | =B4 c4 | %11
w: 1.~Why, O my|soul, why|wee- pest|thou? Tell|me from whence|a- rise|Those|bri- ny|years that|of- ten|flow, Those|
 d6 cd | (e3 d c2) d2 | e4 G4 | G6 e2 | d6 c2 | c8 |] %17
w: groans that *|split~ _ _ the|skies, Those|groans that|split the|skies.|
V:2
 G4 E3 A | G4 G4 | D6 E2 | E4 G4 | c2 =B2 G4 | G4 G4 | z4 G4 | D6 E2 | G4 E4 | G6 E2 | D4 (E2 DE) | %11
w: 2.~Is sin the|cause of|thy com-|plaint? Or|the chas- ten-|ing rod?|Dost|thou an|ev- il|heart la-|ment, And * *|
 F6 GF | (E3 F G2) =B2 | G4 G4 | =B6 G2 | G6 E2 | G8 |] %17
w: mourn an *|ab- * * sent|God? And|mourn an|ab- sent|God?|
V:3
 c4 G3 A | G4 e4 | d6 c2 | c4 c4 | e2 d2 c4 | (c2 de) d4 | z4 e4 | d6 c2 | =B4 (c2 de) | d6 c2 | %10
w: 3.~Lord, let me|weep for|nought but|sin, And|af- ter none|but * * Thee;|And|then I|would, O * *|that I|
 d4 (e2 fg) | f6 ed | (c3 d e2) f2 | g4 e4 | d6 c2 | =B6 c2 | c8 |] %17
w: might A * *|con- stant *|wee- * * per|be, A|con- stant|wee- per|be.|
V:4
 C,4 C,3 C, | C,4 C4 | G,6 C,2 | C,4 G,4 | G,2 F,2 E,4 | C,4 G,4 | z4 C4 | G,6 C,2 | G,4 C4 | %9
 G,6 C,2 | G,4 C4 | =B,6 C2 | G,6 F,2 | E,4 E,4 | G,6 C2 | G,6 G,2 | C,8 |] %17

